vi-base/public/vi/viur-shoelace/assets/icons/type-h4.svg

<svg xmlns="http://www.w3.org/2000/svg" viewBox="14 20 34 20"><path d="M29 39.89h-1.35v-9.67h-11.5v9.67h-1.37V20.21h1.37V29h11.5v-8.79H29Zm18.18-5.02h-3.39v5h-1.27v-5H32.4V34l9.76-13.86h1.63v13.58h3.39Zm-4.66-1.15.08-12.46c-.18.34-.73 1.18-1.65 2.53l-7 9.93Z" fill="currentcolor"/></svg>

<svg xmlns="http://www.w3.org/2000/svg" viewBox="14 20 34 20"><path d="M29,39.89H27.65V30.22H16.15v9.67H14.78V20.21h1.37V29h11.5V20.21H29Z" fill="currentcolor"/><path d="M47.18,34.87H43.79v5H42.52v-5H32.4V34l9.76-13.86h1.63V33.72h3.39Zm-4.66-1.15.08-12.46c-.18.34-.73,1.18-1.65,2.53l-7,9.93Z" fill="currentcolor"/></svg>
